mycontacts/fe/src/assets/images/logo.svg

<svg width="202" height="35" viewBox="0 0 202 35" fill="none" xmlns="http://www.w3.org/2000/svg">
<path d="M62.3838 27.0819C60.0655 27.0819 58.0751 26.6838 56.4124 25.8876C54.7498 25.068 53.3916 24.0026 52.3379 22.6912C51.2841 21.3564 50.4996 19.928 49.9844 18.4059C49.4927 16.8603 49.2468 15.3616 49.2468 13.9098V13.137C49.2468 11.5447 49.5044 9.9757 50.0196 8.43017C50.5347 6.86122 51.3192 5.44448 52.373 4.17996C53.4502 2.91543 54.7967 1.9085 56.4124 1.15915C58.0516 0.386383 59.9836 0 62.2082 0C64.5265 0 66.5755 0.433217 68.3552 1.29965C70.1349 2.16609 71.5516 3.37207 72.6054 4.9176C73.6826 6.43971 74.3148 8.23112 74.5022 10.2918H68.7064C68.5425 9.26148 68.1678 8.38334 67.5824 7.6574C66.997 6.93147 66.2359 6.36946 65.2992 5.97137C64.386 5.57328 63.3556 5.37423 62.2082 5.37423C61.0607 5.37423 60.0421 5.57328 59.1522 5.97137C58.2624 6.36946 57.513 6.93147 56.9042 7.6574C56.3188 8.38334 55.8621 9.24977 55.5343 10.2567C55.2299 11.2402 55.0777 12.3408 55.0777 13.5585C55.0777 14.7528 55.2299 15.8534 55.5343 16.8603C55.8621 17.8439 56.3305 18.7103 56.9393 19.4596C57.5716 20.1856 58.3444 20.7476 59.2576 21.1457C60.1709 21.5204 61.213 21.7077 62.3838 21.7077C64.1635 21.7077 65.6622 21.2745 66.8799 20.408C68.121 19.5416 68.8704 18.3473 69.1279 16.8252H74.8886C74.6778 18.6986 74.0455 20.4197 72.9918 21.9887C71.9614 23.5342 70.5447 24.7753 68.7416 25.712C66.9619 26.6253 64.8426 27.0819 62.3838 27.0819Z" fill="#5061FC"/>
<path d="M86.0166 27.0819C84.3305 27.0819 82.8318 26.8243 81.5205 26.3092C80.2091 25.7706 79.0968 25.0446 78.1835 24.1314C77.2937 23.2181 76.6146 22.176 76.1462 21.0052C75.6779 19.8109 75.4437 18.5581 75.4437 17.2467V16.4388C75.4437 15.1041 75.6779 13.8395 76.1462 12.6453C76.638 11.4276 77.3405 10.3621 78.2538 9.44882C79.1905 8.53555 80.3145 7.82132 81.6258 7.30615C82.9372 6.76755 84.4008 6.49826 86.0166 6.49826C87.6792 6.49826 89.1545 6.76755 90.4424 7.30615C91.7538 7.82132 92.8661 8.53555 93.7793 9.44882C94.6926 10.3621 95.3951 11.4276 95.8869 12.6453C96.3786 13.8395 96.6245 15.1041 96.6245 16.4388V17.2467C96.6245 18.5581 96.3904 19.8109 95.922 21.0052C95.4537 22.176 94.7629 23.2181 93.8496 24.1314C92.9597 25.0446 91.8591 25.7706 90.5478 26.3092C89.2364 26.8243 87.726 27.0819 86.0166 27.0819ZM86.0166 22.34C87.1172 22.34 88.0304 22.1058 88.7564 21.6374C89.4823 21.1691 90.0326 20.5134 90.4073 19.6704C90.8054 18.8274 91.0044 17.8907 91.0044 16.8603C91.0044 15.7597 90.8054 14.7996 90.4073 13.98C90.0092 13.137 89.4355 12.4696 88.6861 11.9779C87.9602 11.4861 87.0703 11.2402 86.0166 11.2402C84.9862 11.2402 84.0963 11.4861 83.347 11.9779C82.5977 12.4696 82.0239 13.137 81.6258 13.98C81.2512 14.7996 81.0638 15.7597 81.0638 16.8603C81.0638 17.8907 81.2512 18.8274 81.6258 19.6704C82.0005 20.5134 82.5625 21.1691 83.3119 21.6374C84.0612 22.1058 84.9628 22.34 86.0166 22.34Z" fill="#5061FC"/>
<path d="M98.7905 26.4145V7.16564H103.251V15.4202H102.935C102.935 13.4531 103.181 11.8139 103.673 10.5026C104.188 9.19123 104.961 8.20771 105.991 7.55203C107.022 6.89635 108.274 6.56851 109.75 6.56851H109.996C112.244 6.56851 113.953 7.30615 115.124 8.78143C116.318 10.2333 116.915 12.4462 116.915 15.4202V26.4145H111.295V15.1041C111.295 14.0737 110.991 13.2307 110.382 12.575C109.773 11.9193 108.954 11.5915 107.923 11.5915C106.869 11.5915 106.015 11.931 105.359 12.6101C104.727 13.2658 104.411 14.1322 104.411 15.2094V26.4145H98.7905Z" fill="#5061FC"/>
<path d="M128.695 26.6604C126.751 26.6604 125.182 26.4262 123.988 25.9579C122.793 25.4661 121.915 24.6582 121.353 23.5342C120.815 22.3868 120.545 20.8413 120.545 18.8976V1.96704H125.779V19.1084C125.779 20.0217 126.013 20.7242 126.482 21.2159C126.973 21.6843 127.664 21.9184 128.554 21.9184H131.399V26.6604H128.695ZM117.63 11.2754V7.16564H131.399V11.2754H117.63Z" fill="#5061FC"/>
<path d="M144.98 26.4145V20.7242H144.032V14.542C144.032 13.5585 143.798 12.8209 143.329 12.3291C142.861 11.8374 142.112 11.5915 141.081 11.5915C140.566 11.5915 139.887 11.6032 139.044 11.6266C138.201 11.65 137.335 11.6852 136.445 11.732C135.555 11.7788 134.747 11.8257 134.021 11.8725V7.13052C134.56 7.08369 135.192 7.03685 135.918 6.99002C136.644 6.94318 137.393 6.90806 138.166 6.88464C138.939 6.86122 139.665 6.84951 140.344 6.84951C142.311 6.84951 143.962 7.13052 145.296 7.69253C146.655 8.25454 147.685 9.10927 148.387 10.2567C149.09 11.3807 149.441 12.8326 149.441 14.6123V26.4145H144.98ZM138.833 26.9063C137.452 26.9063 136.234 26.6604 135.18 26.1687C134.15 25.6769 133.342 24.9744 132.757 24.0611C132.171 23.1244 131.878 22.0121 131.878 20.7242C131.878 19.3191 132.241 18.1717 132.967 17.2818C133.693 16.3686 134.712 15.7012 136.023 15.2797C137.335 14.8348 138.845 14.6123 140.554 14.6123H144.664V17.7385H140.519C139.536 17.7385 138.775 17.9844 138.236 18.4761C137.721 18.9445 137.463 19.5884 137.463 20.408C137.463 21.1808 137.721 21.8131 138.236 22.3048C138.775 22.7732 139.536 23.0073 140.519 23.0073C141.152 23.0073 141.714 22.902 142.205 22.6912C142.721 22.457 143.142 22.0707 143.47 21.5321C143.798 20.9935 143.985 20.2441 144.032 19.284L145.367 20.689C145.25 22.0238 144.922 23.1478 144.383 24.0611C143.868 24.9744 143.142 25.6769 142.205 26.1687C141.292 26.6604 140.168 26.9063 138.833 26.9063Z" fill="#5061FC"/>
<path d="M161.094 27.0819C159.432 27.0819 157.98 26.8126 156.739 26.274C155.521 25.712 154.502 24.9627 153.683 24.026C152.863 23.0893 152.254 22.0355 151.856 20.8647C151.458 19.6704 151.259 18.441 151.259 17.1765V16.5091C151.259 15.1977 151.47 13.9449 151.891 12.7506C152.313 11.5329 152.933 10.4558 153.753 9.51907C154.573 8.58238 155.591 7.84474 156.809 7.30615C158.05 6.76755 159.467 6.49826 161.059 6.49826C162.792 6.49826 164.326 6.8378 165.661 7.5169C166.995 8.17258 168.061 9.09756 168.857 10.2918C169.653 11.4861 170.098 12.856 170.192 14.4015H164.677C164.583 13.5351 164.232 12.8092 163.623 12.2237C163.038 11.6149 162.183 11.3105 161.059 11.3105C160.122 11.3105 159.338 11.5447 158.706 12.013C158.097 12.4813 157.64 13.1253 157.336 13.9449C157.031 14.7645 156.879 15.7363 156.879 16.8603C156.879 17.8907 157.02 18.8274 157.301 19.6704C157.582 20.49 158.027 21.134 158.635 21.6023C159.268 22.0472 160.087 22.2697 161.094 22.2697C161.844 22.2697 162.476 22.1409 162.991 21.8833C163.53 21.6023 163.951 21.2276 164.255 20.7593C164.583 20.2675 164.782 19.7055 164.853 19.0733H170.332C170.262 20.6656 169.817 22.0707 168.997 23.2883C168.178 24.4826 167.089 25.4193 165.731 26.0984C164.373 26.7541 162.827 27.0819 161.094 27.0819Z" fill="#5061FC"/>
<path d="M180.917 26.6604C178.973 26.6604 177.404 26.4262 176.21 25.9579C175.015 25.4661 174.137 24.6582 173.575 23.5342C173.037 22.3868 172.767 20.8413 172.767 18.8976V1.96704H178.001V19.1084C178.001 20.0217 178.235 20.7242 178.704 21.2159C179.195 21.6843 179.886 21.9184 180.776 21.9184H183.621V26.6604H180.917ZM169.852 11.2754V7.16564H183.621V11.2754H169.852Z" fill="#5061FC"/>
<path d="M192.813 27.0117C190.073 27.0117 187.931 26.4497 186.385 25.3256C184.84 24.2016 184.02 22.621 183.926 20.5837H188.914C189.008 21.1925 189.371 21.7428 190.003 22.2346C190.659 22.7029 191.631 22.9371 192.919 22.9371C193.902 22.9371 194.71 22.7732 195.342 22.4453C195.998 22.0941 196.326 21.6023 196.326 20.97C196.326 20.408 196.08 19.9631 195.588 19.6353C195.096 19.284 194.218 19.0381 192.954 18.8976L191.443 18.7571C189.125 18.523 187.38 17.879 186.21 16.8252C185.062 15.7714 184.488 14.425 184.488 12.7858C184.488 11.4276 184.828 10.2918 185.507 9.37856C186.186 8.4653 187.123 7.77449 188.317 7.30615C189.535 6.83781 190.916 6.60363 192.462 6.60363C194.944 6.60363 196.946 7.15394 198.468 8.25454C199.991 9.33173 200.787 10.9007 200.857 12.9614H195.869C195.776 12.3291 195.448 11.8022 194.886 11.3807C194.324 10.9358 193.492 10.7133 192.392 10.7133C191.525 10.7133 190.834 10.8773 190.319 11.2051C189.804 11.5329 189.547 11.9779 189.547 12.5399C189.547 13.0785 189.769 13.4883 190.214 13.7693C190.659 14.0503 191.385 14.2493 192.392 14.3664L193.902 14.5069C196.267 14.7645 198.106 15.4202 199.417 16.474C200.728 17.5277 201.384 18.9445 201.384 20.7242C201.384 22.0121 201.033 23.1361 200.33 24.0962C199.628 25.0329 198.632 25.7589 197.344 26.274C196.057 26.7658 194.546 27.0117 192.813 27.0117Z" fill="#5061FC"/>
<path d="M0 26.4145V0.772766H7.93841L13.8044 15.1743H14.4718L20.2675 0.772766H28.3464V26.4145H22.6561V4.53122L23.464 4.60147L16.6847 21.2159H11.2051L4.39071 4.60147L5.26886 4.53122V26.4145H0Z" fill="#222222"/>
<path d="M31.8135 34.0368V29.2597H35.8178C36.4266 29.2597 36.9418 29.1778 37.3633 29.0138C37.7848 28.8733 38.1244 28.6275 38.382 28.2762C38.6396 27.9249 38.8503 27.4449 39.0142 26.836L43.7562 7.16564H49.0953L43.7211 27.9601C43.3464 29.4588 42.8195 30.653 42.1404 31.5429C41.4847 32.4327 40.5949 33.065 39.4709 33.4397C38.3703 33.8378 36.9652 34.0368 35.2558 34.0368H31.8135ZM37.8551 25.993V21.6023H41.9297V25.993H37.8551ZM35.5368 25.993L29.6357 7.16564H35.2909L40.8759 25.993H35.5368Z" fill="#222222"/>
</svg>

<svg xmlns="http://www.w3.org/2000/svg" width="202" height="35" fill="none"><path fill="#5061FC" d="M62.384 27.082c-2.318 0-4.309-.398-5.972-1.194-1.662-.82-3.02-1.885-4.074-3.197-1.054-1.335-1.838-2.763-2.354-4.285-.491-1.546-.737-3.044-.737-4.496v-.773c0-1.592.257-3.161.773-4.707a12.831 12.831 0 0 1 2.353-4.25c1.077-1.265 2.424-2.271 4.04-3.02C58.051.385 59.982 0 62.207 0c2.319 0 4.368.433 6.147 1.3 1.78.866 3.197 2.072 4.25 3.618 1.078 1.522 1.71 3.313 1.897 5.374h-5.796c-.163-1.03-.538-1.909-1.124-2.635-.585-.726-1.346-1.288-2.283-1.686-.913-.398-1.943-.597-3.09-.597-1.148 0-2.167.2-3.057.597a6.19 6.19 0 0 0-2.248 1.686c-.585.726-1.042 1.593-1.37 2.6-.304.983-.456 2.084-.456 3.302 0 1.194.152 2.294.456 3.301a8.18 8.18 0 0 0 1.405 2.6 6.444 6.444 0 0 0 2.319 1.686c.913.374 1.955.562 3.126.562 1.78 0 3.278-.433 4.496-1.3 1.241-.866 1.99-2.06 2.248-3.583h5.76a11.423 11.423 0 0 1-1.896 5.164c-1.03 1.545-2.447 2.786-4.25 3.723-1.78.913-3.9 1.37-6.358 1.37ZM86.017 27.082c-1.686 0-3.185-.258-4.496-.773-1.312-.538-2.424-1.264-3.338-2.178a9.495 9.495 0 0 1-2.037-3.126 10.204 10.204 0 0 1-.702-3.758v-.808c0-1.335.234-2.6.702-3.794a9.504 9.504 0 0 1 2.108-3.196c.936-.913 2.06-1.628 3.372-2.143 1.311-.538 2.775-.808 4.39-.808 1.663 0 3.138.27 4.426.808 1.312.515 2.424 1.23 3.337 2.143a9.504 9.504 0 0 1 2.108 3.196 9.866 9.866 0 0 1 .737 3.794v.808c0 1.311-.234 2.564-.702 3.758a9.234 9.234 0 0 1-2.072 3.126c-.89.914-1.99 1.64-3.302 2.178-1.312.515-2.822.773-4.531.773Zm0-4.742c1.1 0 2.013-.234 2.74-.703.725-.468 1.276-1.124 1.65-1.967.398-.843.597-1.78.597-2.81 0-1.1-.199-2.06-.597-2.88a4.783 4.783 0 0 0-1.72-2.002c-.727-.492-1.617-.738-2.67-.738-1.03 0-1.92.246-2.67.738a4.783 4.783 0 0 0-1.721 2.002c-.375.82-.562 1.78-.562 2.88 0 1.03.187 1.967.562 2.81.374.843.936 1.5 1.686 1.967.75.469 1.65.703 2.705.703ZM98.79 26.415V7.165h4.461v8.255h-.316c0-1.967.246-3.606.738-4.917.515-1.312 1.288-2.295 2.318-2.951 1.031-.656 2.283-.983 3.759-.983h.246c2.248 0 3.957.737 5.128 2.212 1.194 1.452 1.791 3.665 1.791 6.64v10.994h-5.62v-11.31c0-1.031-.304-1.874-.913-2.53-.609-.656-1.428-.983-2.459-.983-1.054 0-1.908.339-2.564 1.018-.632.656-.948 1.522-.948 2.6v11.205h-5.62ZM128.695 26.66c-1.944 0-3.513-.234-4.707-.702-1.195-.492-2.073-1.3-2.635-2.424-.538-1.147-.808-2.693-.808-4.636V1.967h5.234v17.141c0 .914.234 1.616.703 2.108.491.468 1.182.702 2.072.702h2.845v4.742h-2.704ZM117.63 11.275v-4.11h13.769v4.11H117.63ZM144.98 26.415v-5.69h-.948v-6.183c0-.983-.234-1.721-.703-2.213-.468-.492-1.217-.738-2.248-.738a104.998 104.998 0 0 0-4.636.14c-.89.048-1.698.095-2.424.142V7.13a86.853 86.853 0 0 1 1.897-.141 72.146 72.146 0 0 1 4.426-.14c1.967 0 3.618.28 4.952.843 1.359.562 2.389 1.416 3.091 2.564.703 1.124 1.054 2.576 1.054 4.355v11.803h-4.461Zm-6.147.491c-1.381 0-2.599-.246-3.653-.737-1.03-.492-1.838-1.195-2.423-2.108-.586-.937-.879-2.049-.879-3.337 0-1.405.363-2.552 1.089-3.442.726-.913 1.745-1.58 3.056-2.002 1.312-.445 2.822-.668 4.531-.668h4.11v3.126h-4.145c-.983 0-1.744.246-2.283.738-.515.469-.773 1.112-.773 1.932 0 .773.258 1.405.773 1.897.539.468 1.3.702 2.283.702.633 0 1.195-.105 1.686-.316.516-.234.937-.62 1.265-1.159.328-.538.515-1.288.562-2.248l1.335 1.405c-.117 1.335-.445 2.459-.984 3.372a5.246 5.246 0 0 1-2.178 2.108c-.913.491-2.037.737-3.372.737ZM161.094 27.082c-1.662 0-3.114-.27-4.355-.808-1.218-.562-2.237-1.311-3.056-2.248a9.3 9.3 0 0 1-1.827-3.161 11.59 11.59 0 0 1-.597-3.688v-.668c0-1.311.211-2.564.632-3.758a9.648 9.648 0 0 1 1.862-3.232c.82-.937 1.838-1.674 3.056-2.213 1.241-.538 2.658-.808 4.25-.808 1.733 0 3.267.34 4.602 1.019 1.334.656 2.4 1.58 3.196 2.775.796 1.194 1.241 2.564 1.335 4.11h-5.515c-.094-.867-.445-1.593-1.054-2.178-.585-.61-1.44-.914-2.564-.914-.937 0-1.721.235-2.353.703-.609.468-1.066 1.112-1.37 1.932-.305.82-.457 1.791-.457 2.915 0 1.03.141 1.967.422 2.81.281.82.726 1.464 1.334 1.932.633.445 1.452.668 2.459.668.75 0 1.382-.13 1.897-.387.539-.28.96-.655 1.264-1.124a3.742 3.742 0 0 0 .598-1.686h5.479c-.07 1.593-.515 2.998-1.335 4.215-.819 1.195-1.908 2.131-3.266 2.81-1.358.656-2.904.984-4.637.984ZM180.917 26.66c-1.944 0-3.513-.234-4.707-.702-1.195-.492-2.073-1.3-2.635-2.424-.538-1.147-.808-2.693-.808-4.636V1.967h5.234v17.141c0 .914.234 1.616.703 2.108.491.468 1.182.702 2.072.702h2.845v4.742h-2.704Zm-11.065-15.385v-4.11h13.769v4.11h-13.769ZM192.813 27.012c-2.74 0-4.882-.562-6.428-1.686-1.545-1.124-2.365-2.705-2.459-4.742h4.988c.094.608.457 1.159 1.089 1.65.656.469 1.628.703 2.916.703.983 0 1.791-.164 2.423-.492.656-.35.984-.843.984-1.475 0-.562-.246-1.007-.738-1.335-.492-.351-1.37-.597-2.634-.737l-1.511-.14c-2.318-.235-4.063-.879-5.233-1.933-1.148-1.054-1.722-2.4-1.722-4.04 0-1.357.34-2.493 1.019-3.406.679-.914 1.616-1.605 2.81-2.073 1.218-.468 2.599-.702 4.145-.702 2.482 0 4.484.55 6.006 1.65 1.523 1.078 2.319 2.647 2.389 4.707h-4.988c-.093-.632-.421-1.159-.983-1.58-.562-.445-1.394-.668-2.494-.668-.867 0-1.558.164-2.073.492-.515.328-.772.773-.772 1.335 0 .539.222.948.667 1.23.445.28 1.171.48 2.178.596l1.51.14c2.365.258 4.204.914 5.515 1.968 1.311 1.054 1.967 2.47 1.967 4.25 0 1.288-.351 2.412-1.054 3.372-.702.937-1.698 1.663-2.986 2.178-1.287.492-2.798.738-4.531.738Z"/><path fill="#222" d="M0 26.415V.773h7.938l5.866 14.401h.668L20.267.773h8.08v25.642h-5.69V4.53l.807.07-6.78 16.615h-5.479L4.391 4.6l.878-.07v21.883H0ZM31.814 34.037V29.26h4.004c.609 0 1.124-.082 1.545-.246.422-.14.761-.386 1.019-.738.258-.351.468-.831.632-1.44l4.742-19.67h5.34L43.72 27.96c-.375 1.499-.901 2.693-1.58 3.583-.656.89-1.546 1.522-2.67 1.897-1.1.398-2.506.597-4.215.597h-3.442Zm6.041-8.044v-4.39h4.075v4.39h-4.075Zm-2.318 0L29.636 7.166h5.655l5.585 18.827h-5.34Z"/></svg>
